src/icons/svgs/24/sort-alt.svg

<svg width="24" height="24" viewBox="0 0 24 24" fill="none" xmlns="http://www.w3.org/2000/svg">
<path d="M11.9995 3C11.7437 3 11.4877 3.09965 11.2927 3.29895L6.29295 8.40099C5.90235 8.79959 5.90235 9.44531 6.29295 9.84391C6.68356 10.2425 7.31634 10.2425 7.70694 9.84391L11.9995 5.46174L16.2931 9.84311C16.6837 10.2417 17.3164 10.2417 17.707 9.84311C18.0977 9.44452 18.0977 8.79879 17.707 8.40019L12.7073 3.29815C12.512 3.09885 12.2558 3 11.9995 3Z" fill="black"/>
<path d="M11.9995 21C11.7437 21 11.4877 20.9004 11.2927 20.7011L6.29295 15.599C5.90235 15.2004 5.90235 14.5547 6.29295 14.1561C6.68356 13.7575 7.31634 13.7575 7.70694 14.1561L11.9995 18.5383L16.2931 14.1569C16.6837 13.7583 17.3164 13.7583 17.707 14.1569C18.0976 14.5555 18.0976 15.2012 17.707 15.5998L12.7073 20.7019C12.512 20.9012 12.2558 21 11.9995 21Z" fill="black"/>
</svg>

<svg width="24" height="24" viewBox="0 0 24 24" xmlns="http://www.w3.org/2000/svg">
    <path d="M12 3c-.256 0-.512.1-.707.299l-5 5.102a1.035 1.035 0 0 0 0 1.443.985.985 0 0 0 1.414 0l4.292-4.382 4.294 4.381a.985.985 0 0 0 1.414 0c.39-.398.39-1.044 0-1.443l-5-5.102A.987.987 0 0 0 12 3Zm0 18a.986.986 0 0 1-.707-.299l-5-5.102a1.035 1.035 0 0 1 0-1.443.985.985 0 0 1 1.414 0l4.292 4.382 4.294-4.381a.985.985 0 0 1 1.414 0c.39.399.39 1.044 0 1.443l-5 5.102A.987.987 0 0 1 12 21Z"/>
</svg>
